X:1
T:Title
%%score { ( 1 4 ) | ( 2 3 ) }
L:1/8
M:4/4
K:G
V:1 treble nm="Grand Piano"
V:4 treble 
V:2 treble 
V:3 treble 
V:1
 z4 z2[Q:1/4=100] D2 | G2 G2 B2 BB | G2 G2 D2 DD | G2 B2 A2 G2 |[M:3/4] [Fd]6 |[M:1/4] B2 | %6
[M:4/4] d2 d2 B2 BB | G2 G2 D2 D2 | [DG]2 [Ec]2 BB A2 |[M:3/4] [G,B,DG]6 |[M:1/4] [DGB]2 | %11
[M:4/4] [Gd]6 z2 | G6 z2 | c2 c2 [Ac][Ac] [GB]2 | [FA]6 z2 | dddd d2 [FB][FA] | %16
[M:9/8] GGG- G [Ge]2- [Ge] [Ge]2 |[M:4/4] [Gd]3 [Gd] [Fd][Fc] [FA]2 |[M:3/4] [B,DG]6 |] %19
V:2
 z4 z2 [G,B,]2 | [G,B,D]2 [G,B,D]2 [G,DG]2 GG | [G,B,D]2 [G,B,D]2 [G,B,]2 [G,B,][G,B,] | %3
 [G,B,D]2 [G,D]2 [F,A,D]2 [E,A,]2 |[M:3/4] [D,A,]6 |[M:1/4][K:treble] [G,G]2 | %6
[M:4/4] [G,B,G]2 [G,B,G]2 [G,DG]2 GG | [G,B,D]2 [G,B,D]2 [G,B,]2 [G,B,]2 | %8
 [B,,G,]2 [C,G,]2 [D,G,D][D,G,D] [D,CD]2 |[M:3/4] G,,6 |[M:1/4] G,2 | %11
[M:4/4] B,2 D,2 G,2[K:treble] [G,B,G]2 | [B,D]2[K:bass] D,2 G,2[K:treble] [B,D]2 | %13
 [A,DF]2 [A,DF]2[K:bass] [F,D][F,D] [G,D]2 | D2 z2 z2[K:treble] [G,DG]2 | %15
 [B,DG][B,DG][B,DG][B,DG] [G,B,G]2[K:bass] [D,D][D,C] | %16
[M:9/8] [E,B,E][E,B,E][E,B,E]- [E,B,E] [C,C]2- [C,C] [C,C]2 | %17
[M:4/4] [D,B,]3 [D,B,] [D,A,][D,A,] [D,C]2 |[M:3/4] [G,,G,]6 |] %19
V:3
 x8 | z4 z2 [G,D]2 | x8 | x8 |[M:3/4] x6 |[M:1/4][K:treble] x2 |[M:4/4] z4 z2 [G,D]2 | x8 | x8 | %9
[M:3/4] x6 |[M:1/4] x2 |[M:4/4] x6[K:treble] x2 | x2[K:bass] x4[K:treble] x2 | x4[K:bass] x4 | %14
 D,6[K:treble] z2 | x6[K:bass] x2 |[M:9/8] x9 |[M:4/4] x8 |[M:3/4] x6 |] %19
V:4
 x8 | x8 | x8 | x8 |[M:3/4] x6 |[M:1/4] x2 |[M:4/4] x8 | x8 | x8 |[M:3/4] x6 |[M:1/4] x2 | %11
[M:4/4] D2 B,2 B,2 d2 | z2 B,2 B,2 G2 | x8 | z2 D2 D2 B2 | x8 |[M:9/8] x9 |[M:4/4] x8 | %18
[M:3/4] x6 |] %19

